assets/img/Bkgd_SayHello.svg

<svg xmlns="http://www.w3.org/2000/svg" xmlns:xlink="http://www.w3.org/1999/xlink" width="1440" height="934" viewBox="0 0 1440 934">
  <defs>
    <polygon id="bkgd_sayhello-a" points="0 290.404 1108.95 0 1440 208.841 1440 933.404 0 933.404"/>
  </defs>
  <g fill="none" fill-rule="evenodd" transform="translate(0 .596)">
    <mask id="bkgd_sayhello-b" fill="#fff">
      <use xlink:href="#bkgd_sayhello-a"/>
    </mask>
    <use fill="#F2F4F9" xlink:href="#bkgd_sayhello-a"/>
    <path fill="#E6EAF3" fill-rule="nonzero" d="M0.889915919,410.403687 L457.657853,410.410287 C459.608074,410.410287 461.472319,411.186407 462.848971,412.56616 C464.225624,413.945912 465,415.814281 465,417.768967 L465,417.768967 L465,736.546955 C465,738.501568 464.225624,740.37001 462.848971,741.749762 C461.472319,743.129515 459.608074,743.905635 457.657853,743.905635 L457.657853,743.905635 L344.368525,743.905635 L318.958089,853.829587 C318.355812,856.502848 316.319541,858.601249 313.680921,859.291125 C311.0423,859.981001 308.26036,859.14741 306.396116,857.164025 L306.396116,857.164025 L306.424794,857.164025 L203.634736,743.906591 L180.719162,743.906591 L180.719162,855.147747 C180.719162,857.102359 179.944785,858.970801 178.568133,860.350554 C177.19148,861.730306 175.327236,862.506426 173.377015,862.506426 L173.377015,862.506426 L50.6823964,862.506426 L-12.098834,931.034127 C-13.9343708,933.046248 -16.745018,933.851103 -19.354931,933.161227 C-21.9935518,932.471351 -24.0298375,930.373024 -24.660807,927.728462 L-24.660807,927.728462 L-24.6321212,927.699711 L-39.3164151,862.506227 L-106.657853,862.506227 C-108.608074,862.506227 -110.472319,861.730108 -111.848971,860.350355 C-113.225624,858.970603 -114,857.102161 -114,855.147548 L-114,855.147548 L-114,659.708384 C-114,655.65537 -110.701761,652.349704 -106.657853,652.349704 L-106.657853,652.349704 L-6.45223106,652.349704 L-6.45223106,417.762366 C-6.45223106,413.68058 -3.15399179,410.403687 0.889915919,410.403687 L0.889915919,410.403687 Z M-6.45068921,667.069123 L-99.8354566,667.069123 L-99.8354566,847.73206 L-33.7561338,847.73206 C-30.2571603,847.645816 -27.1883631,850.031647 -26.4139868,853.481028 L-26.4139868,853.481028 L-13.1922486,910.711685 L41.6447788,850.232171 C43.0501391,848.679931 45.0003602,847.817612 47.0940469,847.788869 L47.0940469,847.788869 L166.031028,847.788869 L166.031028,743.817941 L0.89145777,743.817941 C-1.05876331,743.817941 -2.92300785,743.041821 -4.29966041,741.662069 C-5.67631297,740.282317 -6.45068921,738.413874 -6.45068921,736.459262 L-6.45068921,736.459262 L-6.45068921,667.069123 Z M450.312424,425.123326 L8.23441238,425.123326 L8.23441238,729.103011 L206.788093,729.103011 C208.853072,729.103011 210.832001,729.994073 212.208653,731.546313 L212.208653,731.546313 L307.656564,836.841656 L331.088292,734.90923 C331.83396,731.488621 334.931465,729.102798 338.430439,729.189034 L338.430439,729.189034 L450.312424,729.189034 L450.312424,425.123326 Z M-20.1955307,750.434646 C-13.0497683,750.434646 -7.25698324,756.234153 -7.25698324,763.388207 C-7.25698324,770.54226 -13.0497683,776.341767 -20.1955307,776.341767 C-27.3412932,776.341767 -33.1340782,770.54226 -33.1340782,763.388207 C-33.1340782,756.234153 -27.3412932,750.434646 -20.1955307,750.434646 Z M32.9962756,750.434646 C40.1420381,750.434646 45.9348231,756.234153 45.9348231,763.388207 C45.9348231,770.54226 40.1420381,776.341767 32.9962756,776.341767 C25.8505132,776.341767 20.0577281,770.54226 20.0577281,763.388207 C20.0577281,756.234153 25.8505132,750.434646 32.9962756,750.434646 Z M86.188082,750.434646 C93.3338444,750.434646 99.1266294,756.234153 99.1266294,763.388207 C99.1266294,770.54226 93.3338444,776.341767 86.188082,776.341767 C79.0423195,776.341767 73.2495345,770.54226 73.2495345,763.388207 C73.2495345,756.234153 79.0423195,750.434646 86.188082,750.434646 Z M140.727654,551.273656 C152.786128,551.273656 162.561453,561.060323 162.561453,573.132789 C162.561453,585.205255 152.786128,594.991922 140.727654,594.991922 C128.669179,594.991922 118.893855,585.205255 118.893855,573.132789 C118.893855,561.060323 128.669179,551.273656 140.727654,551.273656 Z M229.680168,551.273656 C241.738642,551.273656 251.513966,561.060323 251.513966,573.132789 C251.513966,585.205255 241.738642,594.991922 229.680168,594.991922 C217.621693,594.991922 207.846369,585.205255 207.846369,573.132789 C207.846369,561.060323 217.621693,551.273656 229.680168,551.273656 Z M318.632682,551.273656 C330.691156,551.273656 340.46648,561.060323 340.46648,573.132789 C340.46648,585.205255 330.691156,594.991922 318.632682,594.991922 C306.574207,594.991922 296.798883,585.205255 296.798883,573.132789 C296.798883,561.060323 306.574207,551.273656 318.632682,551.273656 Z" mask="url(#bkgd_sayhello-b)" transform="matrix(-1 0 0 1 351 0)"/>
  </g>
</svg>

<svg xmlns="http://www.w3.org/2000/svg" xmlns:xlink="http://www.w3.org/1999/xlink" width="1440" height="934"><defs><path id="a" d="M0 290.404L1108.95 0 1440 208.841v724.563H0z"/></defs><g fill="none" fill-rule="evenodd" transform="translate(0 .596)"><mask id="b" fill="#fff"><use xlink:href="#a"/></mask><use fill="#F2F4F9" xlink:href="#a"/><path fill="#E6EAF3" fill-rule="nonzero" d="M.89 410.404l456.768.006c1.95 0 3.814.776 5.191 2.156A7.362 7.362 0 01465 417.77v318.778a7.362 7.362 0 01-2.151 5.203 7.329 7.329 0 01-5.191 2.156h-113.29l-25.41 109.924a7.296 7.296 0 01-5.277 5.461c-2.639.69-5.42-.144-7.285-2.127h.029l-102.79-113.257h-22.916v111.24a7.362 7.362 0 01-2.15 5.204 7.329 7.329 0 01-5.192 2.155H50.682l-62.78 68.528a7.308 7.308 0 01-7.257 2.127 7.386 7.386 0 01-5.306-5.433l.029-.028-14.684-65.194h-67.342a7.329 7.329 0 01-5.191-2.156 7.362 7.362 0 01-2.151-5.202v-195.44c0-4.053 3.298-7.358 7.342-7.358H-6.452V417.762a7.346 7.346 0 017.342-7.358zm-7.34 256.665h-93.385v180.663h66.079a7.33 7.33 0 017.342 5.749l13.222 57.23 54.837-60.479c1.405-1.552 3.355-2.414 5.449-2.443h118.937V743.818H.891a7.329 7.329 0 01-5.19-2.156 7.362 7.362 0 01-2.152-5.203v-69.39zm456.762-241.946H8.234v303.98h198.554c2.065 0 4.044.891 5.42 2.443l95.449 105.296 23.431-101.933c.746-3.42 3.843-5.806 7.342-5.72h111.882V425.123zM-20.196 750.435c7.146 0 12.939 5.8 12.939 12.953 0 7.154-5.793 12.954-12.939 12.954-7.145 0-12.938-5.8-12.938-12.954 0-7.154 5.793-12.953 12.938-12.953zm53.192 0c7.146 0 12.939 5.8 12.939 12.953 0 7.154-5.793 12.954-12.939 12.954-7.145 0-12.938-5.8-12.938-12.954 0-7.154 5.793-12.953 12.938-12.953zm53.192 0c7.146 0 12.939 5.8 12.939 12.953 0 7.154-5.793 12.954-12.939 12.954s-12.938-5.8-12.938-12.954c0-7.154 5.792-12.953 12.938-12.953zm54.54-199.161c12.058 0 21.833 9.786 21.833 21.859 0 12.072-9.775 21.859-21.833 21.859-12.059 0-21.834-9.787-21.834-21.86 0-12.072 9.775-21.858 21.834-21.858zm88.952 0c12.059 0 21.834 9.786 21.834 21.859 0 12.072-9.775 21.859-21.834 21.859-12.058 0-21.834-9.787-21.834-21.86 0-12.072 9.776-21.858 21.834-21.858zm88.953 0c12.058 0 21.833 9.786 21.833 21.859 0 12.072-9.775 21.859-21.833 21.859-12.059 0-21.834-9.787-21.834-21.86 0-12.072 9.775-21.858 21.834-21.858z" mask="url(#b)" transform="matrix(-1 0 0 1 351 0)"/></g></svg>
